svg/business/basket_2_fill.svg

<?xml version="1.0" encoding="UTF-8"?>
<svg width="24px" height="24px" viewBox="0 0 24 24" version="1.1" xmlns="http://www.w3.org/2000/svg" xmlns:xlink="http://www.w3.org/1999/xlink">
    <title>basket_2_fill</title>
    <g id="Icon" stroke="none" stroke-width="1" fill="none" fill-rule="evenodd">
        <g id="Business" transform="translate(-96.000000, -528.000000)">
            <g id="basket_2_fill" transform="translate(96.000000, 528.000000)">
                <path d="M24,0 L24,24 L0,24 L0,0 L24,0 Z M12.5935,23.2578 L12.5819,23.2595 L12.5109,23.295 L12.4919,23.2987 L12.4767,23.295 L12.4057,23.2595 C12.3958,23.2564 12.387,23.259 12.3821,23.2649 L12.378,23.2758 L12.3609,23.7031 L12.3659,23.7235 L12.3769,23.7357 L12.4805,23.8097 L12.4953,23.8136 L12.5071,23.8097 L12.6107,23.7357 L12.6233,23.7197 L12.6267,23.7031 L12.6096,23.2758 C12.6076,23.2657 12.601,23.2593 12.5935,23.2578 Z M12.8584,23.1453 L12.8445,23.1473 L12.6598,23.2397 L12.6499,23.2499 L12.6472,23.2611 L12.6651,23.6906 L12.6699,23.7034 L12.6784,23.7105 L12.8793,23.8032 C12.8914,23.8069 12.9022,23.803 12.9078,23.7952 L12.9118,23.7812 L12.8777,23.1665 C12.8753,23.1546 12.8674,23.147 12.8584,23.1453 Z M12.143,23.1473 C12.1332,23.1424 12.1222,23.1453 12.1156,23.1526 L12.1099,23.1665 L12.0758,23.7812 C12.0751,23.7927 12.0828,23.8019 12.0926,23.8046 L12.1083,23.8032 L12.3092,23.7105 L12.3186,23.7024 L12.3225,23.6906 L12.3404,23.2611 L12.3372,23.2485 L12.3278,23.2397 L12.143,23.1473 Z" id="MingCute" fill-rule="nonzero"></path>
                <path d="M9.44721,3.10555 C9.94119,3.35254 10.1414,3.95321 9.89443,4.44719 L8.61803,6.99998 L15.382,6.99998 L14.1056,4.44719 C13.8586,3.95321 14.0588,3.35254 14.5528,3.10555 C15.0468,2.85856 15.6474,3.05878 15.8944,3.55276 L17.618,6.99998 L20,6.99998 C21.1046,6.99998 22,7.89541 22,8.99998 L22,9.99998 C22,10.8032 21.5266,11.4958 20.8435,11.8139 L19.3242,18.6508 C19.0192,20.0234 17.8018,21 16.3957,21 L7.60434,21 C6.19825,21 4.98081,20.0234 4.67578,18.6508 L3.15648,11.8139 C2.47345,11.4958 2,10.8032 2,9.99998 L2,8.99998 C2,7.89541 2.89543,6.99998 4,6.99998 L6.38197,6.99998 L8.10557,3.55276 C8.35256,3.05878 8.95324,2.85856 9.44721,3.10555 Z M16.9799,8.99998 C16.9938,9.00027 17.0077,9.00027 17.0217,8.99998 L20,8.99998 L20,9.99998 L4,9.99998 L4,8.99998 L6.97834,8.99998 C6.99228,9.00027 7.00621,9.00027 7.02012,8.99998 L16.9799,8.99998 Z" id="形状" fill="#09244B"></path>
            </g>
        </g>
    </g>
</svg>

<svg xmlns="http://www.w3.org/2000/svg" width="24" height="24"><g fill="none" fill-rule="evenodd"><path d="M24 0v24H0V0zM12.594 23.258l-.012.002-.071.035-.02.004-.014-.004-.071-.036c-.01-.003-.019 0-.024.006l-.004.01-.017.428.005.02.01.013.104.074.015.004.012-.004.104-.074.012-.016.004-.017-.017-.427c-.002-.01-.009-.017-.016-.018m.264-.113-.014.002-.184.093-.01.01-.003.011.018.43.005.012.008.008.201.092c.012.004.023 0 .029-.008l.004-.014-.034-.614c-.003-.012-.01-.02-.02-.022m-.715.002a.023.023 0 0 0-.027.006l-.006.014-.034.614c0 .012.007.02.017.024l.015-.002.201-.093.01-.008.003-.011.018-.43-.003-.012-.01-.01z"/><path fill="#09244B" d="M9.447 3.106a1 1 0 0 1 .447 1.341L8.618 7h6.764l-1.276-2.553a1 1 0 1 1 1.788-.894L17.618 7H20a2 2 0 0 1 2 2v1a2 2 0 0 1-1.157 1.814l-1.519 6.837A3 3 0 0 1 16.396 21H7.604a3 3 0 0 1-2.928-2.35l-1.52-6.836A2 2 0 0 1 2 10V9a2 2 0 0 1 2-2h2.382l1.724-3.447a1 1 0 0 1 1.341-.447M16.98 9H20v1H4V9h3.02z"/></g></svg>
